flags/us-nc.svg

<svg width="512" height="512" viewBox="0 0 512 512" fill="none" xmlns="http://www.w3.org/2000/svg">
<path d="M0 0H232L296 256L232 512H0V0Z" fill="var(--flag-palette-navy, #002266)"/>
<path d="M232 0H512V256L372 320L232 256V0Z" fill="var(--flag-palette-bright-red, #d80027)"/>
<path d="M232 256H512V512H232V256Z" fill="var(--flag-palette-white, #eeeeee)"/>
<path d="M0 0H232V512H0V0Z" fill="var(--flag-palette-navy, #002266)"/>
<path d="M91 294L156 247H76L141 294L116 218L91 294Z" fill="var(--flag-palette-white, #eeeeee)"/>
<path fill-rule="evenodd" clip-rule="evenodd" d="M203.325 121.413C199.616 119.301 195.787 117.3 191.95 115.464L191.356 115.183L192.667 112.279L193.942 109.454L191.117 108.179C179.304 102.841 166.885 98.7598 154.203 96.0448C141.668 93.3621 128.802 92 115.972 92C103.143 92 90.277 93.3621 77.7376 96.0448C65.0602 98.7598 52.6404 102.841 40.8235 108.179L37.9981 109.454L39.2727 112.279L40.5842 115.183L39.9906 115.464C36.1483 117.3 32.3197 119.301 28.6154 121.413L24 124.046L28.5648 126.765C31.8043 128.698 35.0163 130.746 38.1269 132.858C38.2466 136.898 38.4859 140.952 38.8356 144.932L39.2589 149.746L43.4556 147.353C47.2289 145.204 51.1403 143.198 55.0885 141.389L61.2822 138.554L59.506 133.691C77.4937 126.461 96.457 122.799 115.972 122.799C135.488 122.799 154.621 126.494 172.683 133.792L170.658 138.559L176.856 141.394C180.8 143.198 184.716 145.204 188.489 147.357L192.732 149.773L193.114 144.905C193.427 140.911 193.625 136.843 193.703 132.793C196.841 130.7 200.081 128.679 203.352 126.779L208 124.073L203.325 121.409V121.413ZM28.6752 390.586C32.3841 392.699 36.2127 394.7 40.0504 396.536L40.644 396.817L39.3326 399.721L38.0579 402.546L40.8833 403.821C52.6956 409.159 65.1154 413.24 77.7974 415.955C90.3322 418.638 103.198 420 116.028 420C128.857 420 141.723 418.638 154.262 415.955C166.94 413.24 179.36 409.159 191.177 403.821L194.002 402.546L192.727 399.721L191.416 396.817L192.009 396.536C195.852 394.7 199.68 392.699 203.385 390.587L208 387.954L203.435 385.235C200.196 383.302 196.984 381.254 193.873 379.142C193.753 375.102 193.514 371.048 193.164 367.068L192.741 362.254L188.544 364.647C184.771 366.796 180.86 368.802 176.912 370.611L170.718 373.445L172.494 378.309C154.506 385.539 135.543 389.201 116.028 389.201C96.5122 389.201 77.3787 385.506 59.3174 378.208L61.3421 373.441L55.1437 370.606C51.2001 368.802 47.2842 366.796 43.5108 364.643L39.2682 362.227L38.8862 367.095C38.5733 371.089 38.3754 375.157 38.2972 379.207C35.1589 381.3 31.9194 383.321 28.6476 385.221L24 387.927L28.6752 390.591V390.586ZM64 224H24V288H64V224ZM208 224H168V288H208V224Z" fill="var(--flag-palette-dark-yellow, #ffc635)"/>
</svg>

<svg xmlns="http://www.w3.org/2000/svg" width="512" height="512" fill="none"><g clip-path="url(#a)"><path fill="#026" d="M0 0h232l64 256-64 256H0z"/><path fill="var(--flag-palette-bright-red, #d80027)" d="M232 0h280v256l-140 64-140-64z"/><path fill="#EEE" d="M232 256h280v256H232z"/><path fill="#026" d="M0 0h232v512H0z"/><path fill="#EEE" d="m91 294 65-47H76l65 47-25-76z"/><path fill="var(--flag-palette-dark-yellow, #ffc635)" fill-rule="evenodd" d="M203.3 121.4q-5.6-3.1-11.4-6l-.5-.2 1.3-3 1.2-2.7-2.8-1.3a183 183 0 0 0-150.3 0l-2.8 1.3 1.3 2.8 1.3 2.9-.6.3a178 178 0 0 0-11.4 6L24 124l4.6 2.8 9.5 6q.2 6.2.7 12.1l.5 4.8 4.2-2.3a149 149 0 0 1 11.6-6l6.2-2.8-1.8-5a151 151 0 0 1 113.2.2l-2 4.8 6.2 2.8q5.9 2.7 11.6 6l4.2 2.4.4-4.9q.5-6 .6-12.1 4.7-3.1 9.7-6l4.6-2.7zM28.7 390.6a180 180 0 0 0 11.4 6l.5.2-1.3 3-1.2 2.7 2.8 1.3a183 183 0 0 0 150.3 0l2.8-1.3-1.3-2.8-1.3-2.9.6-.3q5.8-2.7 11.4-6l4.6-2.5-4.6-2.8-9.5-6q-.2-6.2-.7-12.1l-.5-4.8-4.2 2.3a149 149 0 0 1-11.6 6l-6.2 2.8 1.8 5a151 151 0 0 1-113.2-.2l2-4.8-6.2-2.8q-5.9-2.7-11.6-6l-4.2-2.4-.4 4.9q-.5 6-.6 12.1-4.7 3.2-9.7 6L24 388zM64 224H24v64h40zm144 0h-40v64h40z" clip-rule="evenodd"/></g><defs><clipPath id="a"><path fill="#fff" d="M0 0h512v512H0z"/></clipPath></defs></svg>
